X: 6813
T: Charlie
R: jig
M: 6/8
K: Gmajor
|:BAG Bd(F|F3) AGF|ECE GEc|CB,C ACG|
BAG GFG|d3 FGA|GEC CcB|AGF G3:|
|:EGc cBG|GAA AFE|DDD Ddc|BdG GFD|ECE GcB|
GAA AGF|1 G3 GF(D|D)GD ABG:|2 GFG dGF|GFG dGF||

